X:2987
T:Polska efter Jon Andersson
S:Svenska Låtar Värmland nummer 176
R:Finnskogspols
O:Aspberget, Norra Finnskoga, Värmland
N:Se även [[Musik/2284|+]], [[Musik/2252|+]], [[Musik/2619|+]] och [[Musik/2562|+]], samt andra ABC-uppteckningar av [[http://abcnotation.com/tunePage?a=www.norbeck.nu/abc/s/hnl1p0/0007|Henrik Norbeck]] och [[http://abcnotation.com/tunePage?a=trillian.mit.edu/~jc/music/abc/Scand/pols/P_JonAndersson2_Dm/0000|John Chambers]]
M:3/4
L:1/8
K:Dm
(af)|:dd ^cA cd|e2 fa gb| af ed (3^c=Bc|dA FD af|
dd ^cA cd|e2 fa gb| af ed (3^c=Bc|1 d4  af:|2 d4 !trill!a2|]
|:(3fga (3fga (3fga|b4 !trill!g2|(3efg (3efg (3efg|a4 (af)|
dd ^cA cd|e2 fa gb| af ed (3^c=Bc|1 d4  !trill!a2:|2 d4|]
(:musicend:)

(:music:)
